components/ui-node-icon/src/condition/condition.small.svg

<svg width="16" height="16" viewBox="0 0 16 16" fill="none" xmlns="http://www.w3.org/2000/svg">
  <path fill-rule="evenodd" clip-rule="evenodd" d="M6.9399 1.45303C7.52539 0.867552 8.47454 0.867216 9.06045 1.45228L14.5546 6.93857C15.1414 7.52453 15.1414 8.47544 14.5546 9.0614L9.06057 14.5477C8.47467 15.1328 7.52551 15.1324 6.94001 14.547L1.45352 9.06066C0.867711 8.47487 0.867707 7.5251 1.45351 6.93931L6.9399 1.45303ZM8.35385 2.1599C8.15855 1.96487 7.84216 1.96499 7.647 2.16015L2.16061 7.64642C1.96534 7.84169 1.96534 8.15828 2.16061 8.35354L7.64711 13.8399C7.84228 14.035 8.15866 14.0351 8.35396 13.8401L13.848 8.3538C14.0436 8.15847 14.0436 7.8415 13.848 7.64619L8.35385 2.1599ZM6 5.50391C6 5.22776 6.22386 5.00391 6.5 5.00391C6.77614 5.00391 7 5.22776 7 5.50391V10.5039C7 10.78 6.77614 11.0039 6.5 11.0039C6.22386 11.0039 6 10.78 6 10.5039V5.50391ZM9 5C8.44772 5 8 5.44772 8 6V7.49219V10.5C8 10.7761 8.22386 11 8.5 11C8.77614 11 9 10.7761 9 10.5V7.99219H9.5C9.77614 7.99219 10 7.76833 10 7.49219C10 7.21605 9.77614 6.99219 9.5 6.99219H9V6H10C10.2761 6 10.5 5.77614 10.5 5.5C10.5 5.22386 10.2761 5 10 5H9Z" fill="currentColor"/>
</svg>

<svg xmlns="http://www.w3.org/2000/svg" width="16" height="16" fill="none" viewBox="0 0 16 16">
  <path fill="currentColor" fill-rule="evenodd" d="M6.94 1.453a1.5 1.5 0 0 1 2.12 0l5.495 5.486a1.5 1.5 0 0 1 0 2.122L9.06 14.548a1.5 1.5 0 0 1-2.121-.001L1.454 9.061a1.5 1.5 0 0 1 0-2.122L6.94 1.453Zm1.414.707a.5.5 0 0 0-.707 0L2.161 7.646a.5.5 0 0 0 0 .708l5.486 5.486a.5.5 0 0 0 .707 0l5.494-5.486a.5.5 0 0 0 0-.708L8.354 2.16ZM6 5.504a.5.5 0 1 1 1 0v5a.5.5 0 0 1-1 0v-5ZM9 5a1 1 0 0 0-1 1v4.5a.5.5 0 0 0 1 0V7.992h.5a.5.5 0 0 0 0-1H9V6h1a.5.5 0 0 0 0-1H9Z" clip-rule="evenodd"/>
</svg>
